X: 38358
T: Stan Chapman's
R: jig
M: 6/8
K: Amajor
E3 EFA|B3 Bce|fea fec|ecA BAF|
E3 EFA|B3 Bce|fea fec|1 BAG AFA:|2 BAG AB/c/d]
ecf ecA|f3 fga|fec B3|1 cAF FB/c/d|
ecf ecA|f3 fga|fec B3|cAG AB/c/d:|
[2 cAF F2A|E3 EFA|B3 Bce|fea fec|BAG AFA||

